X: 27405
T: Moghrey Laa Boaldyn
R: jig
M: 6/8
K: Amajor
|:A2e edd|dcc cBB|Bcc ece|f3 eaf|
efe Bce|f3 f2e|a2e fed|cdB AcB:|
|:Ace a2a|f3 fcB|Ace aga|baf ecB|
Ace aga|f3 ecA|d2f ecA|B2B dcB:|

